X:14
T:Stony Point
M:6/8
Q:1/8=300
K:D
%%MIDI channel 1
%%MIDI program 72
%%MIDI transpose 8
%%MIDI grace 1/8
%%MIDI ratio 3 1
F/G/|AdA FDA|d/c/d/e/d AFD|DFA def|(f3 A2)G|FDF AFA|BGB efg|fed Adc|d3-d2::
d/c/|BcA def|gfe agf|edc def|(A3 G3)|FAd dAF|GBe efg|fed Adc|d3-d2:|
